contributed-vectors/busnavi.svg

<svg xmlns="http://www.w3.org/2000/svg" xml:space="preserve" style="fill-rule:evenodd;clip-rule:evenodd;stroke-linejoin:round;stroke-miterlimit:2" viewBox="0 0 192 192"><path d="M164.5 21.5c0-5.519-4.481-10-10-10h-133c-5.519 0-10 4.481-10 10v133c0 5.519 4.481 10 10 10h133c5.519 0 10-4.481 10-10v-133Z" style="fill:#fff" transform="translate(8 8)"/><path d="M66.089 141.27a1.786 1.786 0 0 1-1.784 1.785h-6.278a1.785 1.785 0 0 1-1.785-1.785V66.224a20.527 20.527 0 0 1 20.527-20.527h38.462a20.527 20.527 0 0 1 20.527 20.527v75.046c0 .986-.799 1.785-1.785 1.785h-6.278a1.785 1.785 0 0 1-1.784-1.785v-7.077s-21.492 1.707-31.463 1.707c-9.47 0-28.359-1.707-28.359-1.707v7.077Z" style="fill:#ff837d" transform="translate(2.054 2.02) scale(.9786)"/><path d="M151.281 63.423c1.218 0 2.224.933 2.291 2.125l.904 16.01c.049.875-.633 1.623-1.525 1.673l-2.37.134a1.64 1.64 0 0 1-1.172-.401 1.576 1.576 0 0 1-.539-1.097l-.741-13.133a.869.869 0 0 0-.875-.812h-2.956v-4.499h6.983Z" style="fill:#ff837d" transform="matrix(1.05431 0 0 1.0756 -19.326 -5.206)"/><path d="M151.281 63.423c1.218 0 2.224.933 2.291 2.125l.904 16.01c.049.875-.633 1.623-1.525 1.673l-2.37.134a1.64 1.64 0 0 1-1.172-.401 1.576 1.576 0 0 1-.539-1.097l-.741-13.133a.869.869 0 0 0-.875-.812h-2.956v-4.499h6.983Z" style="fill:#ff837d" transform="matrix(-1.05431 0 0 1.0756 211.326 -5.3)"/><circle cx="65.461" cy="112.922" r="5.859" style="fill:#fff" transform="translate(2.67 2.603) scale(.9786)"/><circle cx="65.461" cy="112.922" r="5.859" style="fill:#fff" transform="translate(61.21 2.603) scale(.9786)"/><path d="M131.769 66.14c0-9.125-7.637-16.523-17.057-16.523H76.276c-9.42 0-17.057 7.398-17.057 16.523v25.679c0 1.469 1.121 2.711 2.624 2.908 6.587.859 23.984 3.002 33.651 3.002 9.667 0 27.064-2.143 33.651-3.003 1.502-.196 2.623-1.439 2.623-2.907l.001-25.679Z" style="fill:#fff" transform="matrix(.96495 0 0 .99609 3.853 .369)"/></svg>

<?xml version="1.0" encoding="UTF-8" standalone="no"?>
<!DOCTYPE svg PUBLIC "-//W3C//DTD SVG 1.1//EN" "http://www.w3.org/Graphics/SVG/1.1/DTD/svg11.dtd">
<svg width="100%" height="100%" viewBox="0 0 192 192" version="1.1" xmlns="http://www.w3.org/2000/svg" xmlns:xlink="http://www.w3.org/1999/xlink" xml:space="preserve" xmlns:serif="http://www.serif.com/" style="fill-rule:evenodd;clip-rule:evenodd;stroke-linejoin:round;stroke-miterlimit:2;">
    <g id="Layer1">
        <g transform="matrix(1,0,0,1,8,8)">
            <path d="M164.5,21.5C164.5,15.981 160.019,11.5 154.5,11.5L21.5,11.5C15.981,11.5 11.5,15.981 11.5,21.5L11.5,154.5C11.5,160.019 15.981,164.5 21.5,164.5L154.5,164.5C160.019,164.5 164.5,160.019 164.5,154.5L164.5,21.5Z" style="fill:white;"/>
        </g>
        <g transform="matrix(0.9786,0,0,0.9786,2.05438,2.01962)">
            <path d="M66.089,141.27C66.089,141.744 65.901,142.197 65.567,142.532C65.232,142.867 64.778,143.055 64.305,143.055L58.027,143.055C57.041,143.055 56.242,142.256 56.242,141.27L56.242,66.224C56.242,60.78 58.405,55.559 62.255,51.709C66.104,47.86 71.325,45.697 76.769,45.697L115.231,45.697C120.675,45.697 125.896,47.86 129.745,51.709C133.595,55.559 135.758,60.78 135.758,66.224L135.758,141.27C135.758,142.256 134.959,143.055 133.973,143.055L127.695,143.055C127.222,143.055 126.768,142.867 126.433,142.532C126.099,142.197 125.911,141.744 125.911,141.27L125.911,134.193C125.911,134.193 104.419,135.9 94.448,135.9C84.978,135.9 66.089,134.193 66.089,134.193L66.089,141.27Z" style="fill:rgb(255,131,125);"/>
            <g transform="matrix(1,0,0,1,0.155857,0)">
                <g transform="matrix(1.07737,0,0,1.09913,-22.0033,-7.38316)">
                    <path d="M151.281,63.423C152.499,63.423 153.505,64.356 153.572,65.548C153.797,69.53 154.277,78.033 154.476,81.558C154.525,82.433 153.843,83.181 152.951,83.231C152.207,83.273 151.326,83.323 150.581,83.365C150.151,83.389 149.73,83.245 149.409,82.964C149.088,82.683 148.894,82.289 148.87,81.867C148.686,78.592 148.268,71.193 148.129,68.734C148.104,68.279 147.72,67.922 147.254,67.922L144.298,67.922L144.298,63.423L151.281,63.423Z" style="fill:rgb(255,131,125);"/>
                </g>
                <g transform="matrix(-1.07737,0,0,1.09913,213.692,-7.47873)">
                    <path d="M151.281,63.423C152.499,63.423 153.505,64.356 153.572,65.548C153.797,69.53 154.277,78.033 154.476,81.558C154.525,82.433 153.843,83.181 152.951,83.231C152.207,83.273 151.326,83.323 150.581,83.365C150.151,83.389 149.73,83.245 149.409,82.964C149.088,82.683 148.894,82.289 148.87,81.867C148.686,78.592 148.268,71.193 148.129,68.734C148.104,68.279 147.72,67.922 147.254,67.922L144.298,67.922L144.298,63.423L151.281,63.423Z" style="fill:rgb(255,131,125);"/>
                </g>
            </g>
            <g transform="matrix(1,0,0,1,0.231491,0)">
                <g transform="matrix(1,0,0,1,0.397188,0.595782)">
                    <circle cx="65.461" cy="112.922" r="5.859" style="fill:white;"/>
                </g>
                <g transform="matrix(1,0,0,1,60.2183,0.595782)">
                    <circle cx="65.461" cy="112.922" r="5.859" style="fill:white;"/>
                </g>
            </g>
            <g transform="matrix(0.986054,0,0,1.01787,1.83766,-1.68682)">
                <path d="M131.769,66.14C131.769,57.015 124.132,49.617 114.712,49.617L76.276,49.617C66.856,49.617 59.219,57.015 59.219,66.14L59.219,91.819C59.219,93.288 60.34,94.53 61.843,94.727C68.43,95.586 85.827,97.729 95.494,97.729C105.161,97.729 122.558,95.586 129.145,94.726C130.647,94.53 131.768,93.287 131.768,91.819C131.769,86.897 131.769,75.745 131.769,66.14Z" style="fill:white;"/>
            </g>
        </g>
    </g>
</svg>
